img/icons/financial/gift.svg

<svg xmlns="http://www.w3.org/2000/svg" viewBox="0 0 48 46"><path d="M48 10h-9.54A6 6 0 0034 0c-3.08 0-5.07 1.18-7.08 4.2C26.44 4.91 25 7.4 24 9c-1-1.6-2.44-4.09-2.92-4.8-2-3-4-4.2-7.08-4.2a6 6 0 00-4.46 10H0v10h4.07l1.36 17.69a9 9 0 009 8.31h19.16a9 9 0 009-8.31L43.93 20H48zM28.58 5.3C30.23 2.83 31.6 2 34 2a4 4 0 010 8h-8.25c.95-1.61 2.39-4 2.83-4.7zM10 6a4 4 0 014-4c2.4 0 3.77.83 5.42 3.3.44.67 1.88 3.09 2.83 4.7H14a4 4 0 01-4-4zm-8 6h21v6H2zm5.43 25.54L6.08 20H23v24h-8.59a7 7 0 01-6.98-6.46zm33.14 0a7 7 0 01-7 6.46H25V20h16.92zM46 18H25v-6h21z" fill="#231f20" data-name="Layer 2"/></svg>

<svg xmlns="http://www.w3.org/2000/svg" viewBox="0 0 48 46"><defs><style>.cls-1{fill:#231f20;}</style></defs><title>Gift</title><g id="Layer_2" data-name="Layer 2"><g id="Icons"><g id="Shopping"><path id="Gift" class="cls-1" d="M48,10H38.46A6,6,0,0,0,34,0c-3.08,0-5.07,1.18-7.08,4.2C26.44,4.91,25,7.4,24,9,23,7.4,21.56,4.91,21.08,4.2c-2-3-4-4.2-7.08-4.2A6,6,0,0,0,9.54,10H0V20H4.07L5.43,37.69a9,9,0,0,0,9,8.31H33.59a9,9,0,0,0,9-8.31L43.93,20H48ZM28.58,5.3C30.23,2.83,31.6,2,34,2a4,4,0,0,1,0,8H25.75C26.7,8.39,28.14,6,28.58,5.3ZM10,6a4,4,0,0,1,4-4c2.4,0,3.77.83,5.42,3.3.44.67,1.88,3.09,2.83,4.7H14A4,4,0,0,1,10,6ZM2,12H23v6H2ZM7.43,37.54,6.08,20H23V44H14.41A7,7,0,0,1,7.43,37.54Zm33.14,0a7,7,0,0,1-7,6.46H25V20H41.92ZM46,18H25V12H46Z"/></g></g></g></svg>
